public/assets/images/about/icons/16.svg

<svg width="54" height="58" viewBox="0 0 54 58" fill="none" xmlns="http://www.w3.org/2000/svg">
<path d="M16.8195 31.2805C21.5176 31.2805 25.3391 27.459 25.3391 22.7609C25.3391 18.0629 21.5164 14.2414 16.8195 14.2414C12.1227 14.2414 8.3 18.0641 8.3 22.7609C8.3 27.4578 12.1215 31.2805 16.8195 31.2805ZM16.8195 15.6465C20.7418 15.6465 23.9328 18.8375 23.9328 22.7598C23.9328 26.682 20.7418 29.8731 16.8195 29.8731C12.8973 29.8731 9.70625 26.682 9.70625 22.7598C9.70625 18.8375 12.8973 15.6465 16.8195 15.6465ZM50.0129 0.757812H29.3973C27.2609 0.757812 25.523 2.4957 25.523 4.63203V15.4156C25.523 17.552 27.2609 19.2898 29.3973 19.2898H31.2793L30.3664 25.5406C30.323 25.8336 30.4695 26.1219 30.7297 26.2625C30.834 26.3188 30.9477 26.3457 31.0613 26.3457C31.2312 26.3457 31.4 26.2848 31.5312 26.1652L39.1801 19.2898H50.0105C52.1469 19.2898 53.8848 17.552 53.8848 15.4156V4.63203C53.8871 2.4957 52.1492 0.757812 50.0129 0.757812ZM52.4809 15.4156C52.4809 16.7762 51.3734 17.8836 50.0129 17.8836H38.9129C38.7395 17.8836 38.5719 17.948 38.443 18.0641L32.041 23.8191L32.791 18.6887C32.8203 18.4871 32.7605 18.282 32.6269 18.1273C32.4934 17.9727 32.2988 17.8836 32.0949 17.8836H29.3996C28.0391 17.8836 26.9316 16.7762 26.9316 15.4156V4.63203C26.9316 3.27148 28.0391 2.16406 29.3996 2.16406H50.0141C51.3746 2.16406 52.482 3.27148 52.482 4.63203V15.4156H52.4809ZM42.2727 42.2926L36.4016 41.0527L33.4086 35.852C33.2832 35.634 33.0512 35.4992 32.7992 35.4992C32.5473 35.4992 32.3152 35.634 32.1898 35.852L29.1969 41.0527L29.1781 41.0563C26.0023 37.5606 21.5223 35.5637 16.8207 35.5637C7.60859 35.5637 0.113281 43.059 0.113281 52.2711V53.0949C0.113281 55.3813 1.97305 57.241 4.25938 57.241H29.3832C31.6695 57.241 33.5293 55.3813 33.5293 53.0949V52.4633L38.2789 54.5855C38.3703 54.6266 38.4688 54.6465 38.566 54.6465C38.7125 54.6465 38.8566 54.6008 38.9797 54.5117C39.1836 54.3641 39.2926 54.118 39.2656 53.8684L38.6305 47.9023L42.6512 43.4492C42.8199 43.2629 42.8762 43.0004 42.7977 42.7602C42.718 42.5234 42.5187 42.3441 42.2727 42.2926ZM29.382 55.8359H4.2582C2.74766 55.8359 1.51836 54.6066 1.51836 53.0961V52.2723C1.51836 43.8348 8.38203 36.9711 16.8195 36.9711C20.8461 36.9711 24.6957 38.5719 27.5574 41.3996L23.3258 42.2926C23.0797 42.3441 22.8805 42.5234 22.802 42.7637C22.7246 43.0027 22.7797 43.2652 22.9484 43.4527L26.9691 47.9059L26.334 53.8719C26.307 54.1215 26.416 54.3676 26.6199 54.5152C26.8238 54.6629 27.091 54.691 27.3195 54.5879L32.1195 52.4434V53.0973C32.1219 54.6066 30.8926 55.8359 29.382 55.8359ZM37.373 47.1957C37.2395 47.3445 37.175 47.5426 37.1961 47.7418L37.7352 52.8055L33.0852 50.7277C32.9937 50.6867 32.8965 50.6668 32.798 50.6668C32.6996 50.6668 32.6023 50.6867 32.5109 50.7277L27.8609 52.8055L28.4 47.7418C28.4211 47.5426 28.3566 47.3445 28.223 47.1957L24.8105 43.4164L29.7934 42.3641C29.9891 42.3231 30.1578 42.2 30.2574 42.0266L32.798 37.6121L35.3387 42.0266C35.4383 42.2 35.607 42.3231 35.8027 42.3641L40.7855 43.4164L37.373 47.1957ZM30.9687 6.27383C30.9687 5.88594 31.284 5.5707 31.6719 5.5707H40.4328C40.8207 5.5707 41.1359 5.88594 41.1359 6.27383C41.1359 6.66172 40.8207 6.97695 40.4328 6.97695H31.6719C31.284 6.97695 30.9687 6.66172 30.9687 6.27383ZM48.4414 10.0238C48.4414 10.4117 48.1262 10.727 47.7383 10.727H31.6719C31.284 10.727 30.9687 10.4117 30.9687 10.0238C30.9687 9.63594 31.284 9.3207 31.6719 9.3207H47.7371C48.1262 9.3207 48.4414 9.63594 48.4414 10.0238ZM48.4414 13.7738C48.4414 14.1617 48.1262 14.477 47.7383 14.477H31.6719C31.284 14.477 30.9687 14.1617 30.9687 13.7738C30.9687 13.3859 31.284 13.0707 31.6719 13.0707H47.7371C48.1262 13.0707 48.4414 13.3859 48.4414 13.7738Z" fill="#615EFC"/>
</svg>

<svg xmlns="http://www.w3.org/2000/svg" width="54" height="58" fill="none" viewBox="0 0 54 58"><path fill="#615efc" d="M16.82 31.28c4.698 0 8.52-3.821 8.52-8.52 0-4.697-3.824-8.519-8.52-8.519-4.697 0-8.52 3.823-8.52 8.52s3.821 8.52 8.52 8.52m0-15.634a7.12 7.12 0 0 1 7.113 7.114 7.12 7.12 0 0 1-7.113 7.113c-3.923 0-7.114-3.191-7.114-7.113a7.12 7.12 0 0 1 7.114-7.114M50.013.758H29.397a3.88 3.88 0 0 0-3.874 3.874v10.784a3.88 3.88 0 0 0 3.874 3.874h1.882l-.913 6.25a.705.705 0 0 0 .695.806c.17 0 .339-.061.47-.18l7.65-6.876h10.83a3.88 3.88 0 0 0 3.874-3.874V4.632A3.875 3.875 0 0 0 50.013.758m2.468 14.658a2.47 2.47 0 0 1-2.468 2.468h-11.1a.7.7 0 0 0-.47.18l-6.402 5.755.75-5.13a.704.704 0 0 0-.696-.805H29.4a2.47 2.47 0 0 1-2.468-2.468V4.632A2.47 2.47 0 0 1 29.4 2.164h20.614a2.47 2.47 0 0 1 2.468 2.468zM42.273 42.293l-5.871-1.24-2.993-5.201a.703.703 0 0 0-1.22 0l-2.992 5.2-.019.004a16.7 16.7 0 0 0-12.357-5.492C7.609 35.564.113 43.059.113 52.27v.824A4.15 4.15 0 0 0 4.26 57.24h25.124a4.15 4.15 0 0 0 4.146-4.146v-.632l4.75 2.123a.7.7 0 0 0 .7-.074.7.7 0 0 0 .287-.644l-.636-5.966 4.021-4.453a.701.701 0 0 0-.378-1.156M29.382 55.836H4.258c-1.51 0-2.74-1.23-2.74-2.74v-.824c0-8.437 6.864-15.3 15.302-15.3 4.026 0 7.876 1.6 10.737 4.428l-4.231.893a.703.703 0 0 0-.378 1.16l4.021 4.453-.635 5.966a.702.702 0 0 0 .986.716l4.8-2.145v.654a2.74 2.74 0 0 1-2.738 2.739m7.991-8.64a.7.7 0 0 0-.177.546l.54 5.064-4.65-2.078a.7.7 0 0 0-.575 0l-4.65 2.078.539-5.064a.7.7 0 0 0-.177-.546l-3.412-3.78 4.982-1.052a.7.7 0 0 0 .464-.337l2.541-4.415 2.54 4.415c.1.173.269.296.465.337l4.983 1.052zM30.969 6.274c0-.388.315-.703.703-.703h8.76a.704.704 0 0 1 0 1.406h-8.76a.704.704 0 0 1-.703-.703m17.472 3.75a.704.704 0 0 1-.703.703H31.672a.704.704 0 0 1 0-1.406h16.065c.39 0 .704.315.704.703m0 3.75a.704.704 0 0 1-.703.703H31.672a.704.704 0 0 1 0-1.406h16.065c.39 0 .704.315.704.703"/></svg>
